X:1
T:Title
%%score { ( 1 3 ) | ( 2 4 ) }
L:1/8
Q:1/4=100
M:6/8
K:G
V:1 treble nm="Grand Piano"
V:3 treble 
V:2 treble 
V:4 treble 
V:1
 B_B=B e2 d | [D^Gc]3 [DGB]3 | [D^GB][^CG_B][DG=B] [EGc]2 [DGB] | [CE]6 | %4
w: Clarence~Kohlmann * * * *||||
 [CFA][CF^G][CFA] [DFB]2 [CFA] | d3 B3 | AB^c B2 A | [Fd]6 | z dd z dd | z de fed | z dd z dd | %11
w: |||||||
 z de fec | B3 e3 | dBA GAB | A3 E3 | .F3 FED | z dd z dd | z de fed | z dd z dd | z de fed | %20
w: |||||||||
 z2 F e3 | [Ed][Ec][EB] [^DA][DB][Dc] | [DB]3 [CA]3 | [B,G]6 |] %24
w: ||||
V:2
 [G,DG][G,^CG][G,DG] [G,B,G]2 [G,B,G] | E,3 E,3 | E,E,E, E,2 E, | A,6 | D,D,D, D,2 D, | %5
 [G,B,G]3 [G,DG]3 | [A,^CG][A,DG][A,EG] [A,DG]2 [A,CG] | D3 z3 | %8
 z[K:treble] [DGB][DGB] z [DGB][DGB] | z [GB][GB] [GB][GB][GB] | z [DFc][DFc] z [DFc][DFc] | %11
 z [Fc][Fc] [Fc][Fc]F | [G,DG]3 [G,B,G]3 | [G,B,G][G,DG][G,CG] [G,B,][G,CG][G,DG] | %14
 [A,^CE]3 [A,C]3 | z DE C,3 | z[K:treble] [GB][GB] z [GB][GB] | z [GB][GB] [GB][GB][GB] | %18
 z [Fc][Fc] z [Fc][Fc] | z [Fc][Fc] [Fc][Fc][Fc] | .[G,DG]3 [G,B,=F]3 | %21
 [C,G,][C,G,][C,G,] [C,C][C,C][C,G,] | [D,G,]3 [D,F,]3 | [G,,G,]6 |] %24
V:3
 x6 | x6 | x6 | x6 | x6 | x6 | x6 | z3 C3 | B,3 D,3 | B,6 | C3 D,3 | C6 | x6 | x6 | x6 | [CA]6 | %16
 B,3 z3 | B,6 | C3 D,3 | C6 | B3 z3 | x6 | x6 | x6 |] %24
V:4
 x6 | x6 | x6 | x6 | x6 | x6 | x6 | D,6 | x[K:treble] x5 | x6 | x6 | x6 | x6 | x6 | x6 | D,6- | %16
 D,6[K:treble] | x6 | x6 | x6 | x6 | x6 | x6 | x6 |] %24

